X: 29104
T: Nell O'Sullivan's
R: slide
M: 12/8
K: Dmajor
|:Bcd A2F A3 A3|Bcd A2F E3 E3|
Bcd A2F A3 A3|dcB A2F D3 D3:|
|:f2e d2f a3 a3|g2e c2e g3 g3|
f2e d2f a3 a3|efg f2e d3 d3:|

